assets/icons/actions/edit.svg

<svg viewBox="0 0 24 24" xmlns="http://www.w3.org/2000/svg">
<path d="M19.3 8.925L15.05 4.725L16.45 3.325C16.8333 2.94167 17.3043 2.75 17.863 2.75C18.421 2.75 18.8917 2.94167 19.275 3.325L20.675 4.725C21.0583 5.10833 21.2583 5.571 21.275 6.113C21.2917 6.65433 21.1083 7.11667 20.725 7.5L19.3 8.925ZM4 21C3.71667 21 3.47933 20.904 3.288 20.712C3.096 20.5207 3 20.2833 3 20V17.175C3 17.0417 3.025 16.9127 3.075 16.788C3.125 16.6627 3.2 16.55 3.3 16.45L13.6 6.15L17.85 10.4L7.55 20.7C7.45 20.8 7.33767 20.875 7.213 20.925C7.08767 20.975 6.95833 21 6.825 21H4Z" fill="inherit"/>
</svg>

<svg viewBox="0 0 24 24" xmlns="http://www.w3.org/2000/svg"><path d="M19.3 9 15 4.6l1.4-1.4a2 2 0 0 1 1.5-.5c.5 0 1 .1 1.4.5l1.4 1.4c.4.4.6.9.6 1.4 0 .6-.2 1-.6 1.4l-1.4 1.4ZM4 21a1 1 0 0 1-.7-.3A1 1 0 0 1 3 20v-2.8a1 1 0 0 1 .3-.8L13.6 6.3l4.3 4.2L7.6 20.7a1 1 0 0 1-.8.3H4Z" fill="inherit"/></svg>
